rospo-icon-theme-classic-common/32x32/apps/dmd-doc.svg

<svg height="32" width="32" xmlns="http://www.w3.org/2000/svg"><rect height="28" opacity=".2" rx="1.437" ry="1.4" transform="matrix(0 -1 -1 0 0 0)" width="23" x="-28" y="-30"/><rect fill="#c52f2f" height="28" rx="1.437" ry="1.4" transform="matrix(0 -1 -1 0 0 0)" width="23" x="-27" y="-30"/><circle cx="25.5" cy="10.5" opacity=".2" r="1.5"/><path d="m2 17v8.562499c0 .796375.6244 1.4375 1.4 1.4375h25.2c.7756 0 1.4-.641125 1.4-1.4375v-3.783265c-8.589875-3.118629-21.0260414-4.727056-28-4.779234z" opacity=".2"/><path d="m24.003987 14c0 2.209138-1.823422 4-4.072727 4-.580527 0-1.132685-.119292-1.63245-.334278-1.436616-.617997-.66635-1.719288-.66635-3.358266 0-.767597-1.553784-1.792149-1.172122-2.401168.71676-1.143733 2.003169-1.906288 3.470922-1.906288 2.249305 0 4.072727 1.790862 4.072727 4z" opacity=".2"/><path d="m24.003987 13c0 2.209138-1.823422 4-4.072727 4-.580527 0-1.132685-.119292-1.63245-.334278-1.436616-.617997-.66635-1.719288-.66635-3.358266 0-.767597-1.553784-1.792149-1.172122-2.401168.71676-1.143733 2.003169-1.906288 3.470922-1.906288 2.249305 0 4.072727 1.790862 4.072727 4z" fill="#ff783e"/><circle cx="25.5" cy="9.5" fill="#ffba46" r="1.5"/><path d="m5.6818182 9.0000032c-.3777273 0-.6818182.3040908-.6818182.681818v13.6363608c0 .377727.3040909.681818.6818182.681818h1.1692118.1944245 5.6489695c.0151 0 .02788-.01012.04261-.01199 4.044635-.12789 7.258518-3.441355 7.262966-7.488008-.002536-4.053716-3.225674-7.3718086-7.27761-7.4920086-.0098-.0008107-.01804-.0079934-.02797-.0079934h-5.6489695-.1944245zm2.3181818 2.9999968h4.299637c2.635904 0 4.700364 1.864098 4.700363 4.500002 0 2.635904-2.064459 4.499998-4.700363 4.499998h-4.299637z" opacity=".2"/><path d="m5.6818182 8.0000032c-.3777273 0-.6818182.3040908-.6818182.681818v13.6363608c0 .377727.3040909.681818.6818182.681818h1.1692118.1944245 5.6489695c.0151 0 .02788-.01012.04261-.01199 4.044635-.12789 7.258518-3.441355 7.262966-7.488008-.002536-4.053716-3.225674-7.3718086-7.27761-7.4920086-.0098-.0008107-.01804-.0079934-.02797-.0079934h-5.6489695-.1944245zm2.3181818 2.9999968h4.299637c2.635904 0 4.700364 1.864098 4.700363 4.500002 0 2.635904-2.064459 4.499998-4.700363 4.499998h-4.299637z" fill="#fff"/><path d="m3.4003906 4c-.7756 0-1.4003906.6411251-1.4003906 1.4375v1c0-.7963749.6247906-1.4375 1.4003906-1.4375h25.1992184c.7756 0 1.400391.6411251 1.400391 1.4375v-1c0-.7963749-.624791-1.4375-1.400391-1.4375z" fill="#fff" opacity=".2"/></svg>

<svg xmlns="http://www.w3.org/2000/svg" width="32" height="32" version="1">
 <rect style="opacity:0.2" width="23" height="28" x="-28" y="-30" rx="1.437" ry="1.4" transform="matrix(0,-1,-1,0,0,0)"/>
 <rect width="23" height="28" x="-27" y="-30" rx="1.437" ry="1.4" transform="matrix(0,-1,-1,0,0,0)" style="fill:#c52f2f"/>
 <circle style="opacity:0.2" cx="25.5" cy="10.5" r="1.5"/>
 <path style="opacity:0.2" d="m 2,17 0,8.562499 c 0,0.796375 0.6244,1.4375 1.4,1.4375 l 25.2,0 c 0.7756,0 1.4,-0.641125 1.4,-1.4375 l 0,-3.783265 C 21.410125,18.660605 8.9739586,17.052178 2,17 Z"/>
 <path d="m 24.003987,14 c 0,2.209138 -1.823422,4 -4.072727,4 -0.580527,0 -1.132685,-0.119292 -1.63245,-0.334278 -1.436616,-0.617997 -0.66635,-1.719288 -0.66635,-3.358266 0,-0.767597 -1.553784,-1.792149 -1.172122,-2.401168 C 17.177098,10.762555 18.463507,10 19.93126,10 c 2.249305,0 4.072727,1.790862 4.072727,4 z" style="opacity:0.2"/>
 <path style="fill:#ff783e" d="m 24.003987,13 c 0,2.209138 -1.823422,4 -4.072727,4 -0.580527,0 -1.132685,-0.119292 -1.63245,-0.334278 -1.436616,-0.617997 -0.66635,-1.719288 -0.66635,-3.358266 0,-0.767597 -1.553784,-1.792149 -1.172122,-2.401168 C 17.177098,9.762555 18.463507,9 19.93126,9 c 2.249305,0 4.072727,1.790862 4.072727,4 z"/>
 <circle cx="25.5" cy="9.5" r="1.5" style="fill:#ffba46"/>
 <path d="M 5.6818182,9.0000032 C 5.3040909,9.0000032 5,9.304094 5,9.6818212 L 5,23.318182 C 5,23.695909 5.3040909,24 5.6818182,24 l 1.1692118,0 0.1944245,0 5.6489695,0 c 0.0151,0 0.02788,-0.01012 0.04261,-0.01199 C 16.781669,23.86012 19.995552,20.546655 20,16.500002 19.997464,12.446286 16.774326,9.1281934 12.72239,9.0079934 12.71259,9.0071827 12.70435,9 12.69442,9 L 7.0454505,9 6.851026,9 Z M 8,12 12.299637,12 C 14.935541,12 17.000001,13.864098 17,16.500002 17,19.135906 14.935541,21 12.299637,21 L 8,21 Z" style="opacity:0.2"/>
 <path style="fill:#ffffff" d="M 5.6818182,8.0000032 C 5.3040909,8.0000032 5,8.304094 5,8.6818212 L 5,22.318182 C 5,22.695909 5.3040909,23 5.6818182,23 l 1.1692118,0 0.1944245,0 5.6489695,0 c 0.0151,0 0.02788,-0.01012 0.04261,-0.01199 C 16.781669,22.86012 19.995552,19.546655 20,15.500002 19.997464,11.446286 16.774326,8.1281934 12.72239,8.0079934 12.71259,8.0071827 12.70435,8 12.69442,8 L 7.0454505,8 6.851026,8 Z M 8,11 12.299637,11 C 14.935541,11 17.000001,12.864098 17,15.500002 17,18.135906 14.935541,20 12.299637,20 L 8,20 Z"/>
 <path style="fill:#ffffff;opacity:0.2" d="M 3.4003906 4 C 2.6247906 4 2 4.6411251 2 5.4375 L 2 6.4375 C 2 5.6411251 2.6247906 5 3.4003906 5 L 28.599609 5 C 29.375209 5 30 5.6411251 30 6.4375 L 30 5.4375 C 30 4.6411251 29.375209 4 28.599609 4 L 3.4003906 4 z"/>
</svg>
